humanity-icon-theme/Humanity/actions/24/mail-replied.svg

<?xml version="1.0" encoding="UTF-8" standalone="no"?>
<!-- Created with Inkscape (http://www.inkscape.org/) -->

<svg
   xmlns:svg="http://www.w3.org/2000/svg"
   xmlns="http://www.w3.org/2000/svg"
   xmlns:xlink="http://www.w3.org/1999/xlink"
   version="1.0"
   width="24"
   height="24"
   id="svg2">
  <defs
     id="defs4">
    <radialGradient
       cx="605.71429"
       cy="486.64789"
       r="117.14286"
       fx="605.71429"
       fy="486.64789"
       id="radialGradient10239"
       xlink:href="#linearGradient5060"
       gradientUnits="userSpaceOnUse"
       gradientTransform="matrix(-2.774389,0,0,1.969706,112.7623,-872.8854)" />
    <linearGradient
       id="linearGradient5060">
      <stop
         id="stop5062"
         style="stop-color:#000000;stop-opacity:1"
         offset="0" />
      <stop
         id="stop5064"
         style="stop-color:#000000;stop-opacity:0"
         offset="1" />
    </linearGradient>
    <radialGradient
       cx="605.71429"
       cy="486.64789"
       r="117.14286"
       fx="605.71429"
       fy="486.64789"
       id="radialGradient10237"
       xlink:href="#linearGradient5060"
       gradientUnits="userSpaceOnUse"
       gradientTransform="matrix(3.773088,0,0,1.969706,-2496.5592,-872.8854)" />
    <linearGradient
       id="linearGradient5048">
      <stop
         id="stop5050"
         style="stop-color:#000000;stop-opacity:0"
         offset="0" />
      <stop
         id="stop5056"
         style="stop-color:#000000;stop-opacity:1"
         offset="0.5" />
      <stop
         id="stop5052"
         style="stop-color:#000000;stop-opacity:0"
         offset="1" />
    </linearGradient>
    <linearGradient
       x1="302.85715"
       y1="366.64789"
       x2="302.85715"
       y2="609.50507"
       id="linearGradient10235"
       xlink:href="#linearGradient5048"
       gradientUnits="userSpaceOnUse"
       gradientTransform="matrix(2.774389,0,0,1.969706,-1892.179,-872.8854)" />
    <linearGradient
       id="linearGradient6945">
      <stop
         id="stop6947"
         style="stop-color:#ffffff;stop-opacity:1"
         offset="0" />
      <stop
         id="stop6949"
         style="stop-color:#d3d7cf;stop-opacity:1"
         offset="1" />
    </linearGradient>
    <linearGradient
       x1="11.887408"
       y1="-0.38282421"
       x2="11.436515"
       y2="18.462242"
       id="linearGradient3629"
       xlink:href="#linearGradient6945"
       gradientUnits="userSpaceOnUse"
       gradientTransform="matrix(0.99999081,0,0,1.0000002,1.1549304e-5,1.9999981)" />
    <linearGradient
       id="linearGradient3600-9">
      <stop
         id="stop3602-7"
         style="stop-color:#f4f4f4;stop-opacity:1"
         offset="0" />
      <stop
         id="stop3604-8"
         style="stop-color:#dbdbdb;stop-opacity:1"
         offset="1" />
    </linearGradient>
    <linearGradient
       id="linearGradient3931-1">
      <stop
         id="stop3933-4"
         style="stop-color:#8d8f8a;stop-opacity:1"
         offset="0" />
      <stop
         id="stop3935-3"
         style="stop-color:#c1c1c1;stop-opacity:1"
         offset="1" />
    </linearGradient>
    <linearGradient
       x1="25.132275"
       y1="6.7287393"
       x2="25.132275"
       y2="47.013336"
       id="linearGradient3743"
       xlink:href="#linearGradient3600-9"
       gradientUnits="userSpaceOnUse"
       gradientTransform="matrix(0.3716348,0,0,0.33178208,-0.91993369,-2.983716)" />
    <linearGradient
       x1="-53.179272"
       y1="16.539951"
       x2="-52.184364"
       y2="5.3934226"
       id="linearGradient3745"
       xlink:href="#linearGradient3931-1"
       gradientUnits="userSpaceOnUse"
       gradientTransform="matrix(0.30009393,0,0,0.31049853,21.158976,-3.3534808)" />
    <linearGradient
       id="linearGradient3242-967-12-570-862-307">
      <stop
         id="stop4498"
         style="stop-color:#ffffff;stop-opacity:1"
         offset="0" />
      <stop
         id="stop4502"
         style="stop-color:#cfcfcf;stop-opacity:1"
         offset="0.87426931" />
      <stop
         id="stop4504"
         style="stop-color:#999999;stop-opacity:1"
         offset="1" />
    </linearGradient>
    <linearGradient
       x1="12"
       y1="4"
       x2="12"
       y2="21"
       id="linearGradient3674"
       xlink:href="#linearGradient3242-967-12-570-862-307"
       gradientUnits="userSpaceOnUse" />
    <linearGradient
       id="linearGradient3495-841-851-719">
      <stop
         id="stop4120"
         style="stop-color:#1e1e1e;stop-opacity:1"
         offset="0" />
      <stop
         id="stop4122"
         style="stop-color:#1e1e1e;stop-opacity:0"
         offset="1" />
    </linearGradient>
    <linearGradient
       x1="23.999866"
       y1="29.826038"
       x2="23.903786"
       y2="16.00676"
       id="linearGradient2466"
       xlink:href="#linearGradient3495-841-851-719"
       gradientUnits="userSpaceOnUse"
       gradientTransform="matrix(0.4657385,0,0,0.4850945,0.82233786,0.53155234)" />
    <linearGradient
       x1="23.928667"
       y1="30.773148"
       x2="23.928667"
       y2="45.530704"
       id="linearGradient2916"
       xlink:href="#linearGradient3495-841-851-719"
       gradientUnits="userSpaceOnUse"
       gradientTransform="matrix(0.4657385,0,0,0.4850945,0.82233776,-2.1022336)" />
    <linearGradient
       id="linearGradient2442">
      <stop
         id="stop2444"
         style="stop-color:#fcaf3e;stop-opacity:1"
         offset="0" />
      <stop
         id="stop2446"
         style="stop-color:#f57900;stop-opacity:0"
         offset="1" />
    </linearGradient>
    <linearGradient
       id="linearGradient3712">
      <stop
         id="stop3714"
         style="stop-color:#bf8407;stop-opacity:1"
         offset="0" />
      <stop
         id="stop3716"
         style="stop-color:#bf8407;stop-opacity:0"
         offset="1" />
    </linearGradient>
    <linearGradient
       x1="22.488874"
       y1="27.182123"
       x2="3.5953195"
       y2="27.182123"
       id="linearGradient2919"
       xlink:href="#linearGradient4222-0"
       gradientUnits="userSpaceOnUse"
       gradientTransform="matrix(0.37050044,0,0,-0.36174945,7.6679294,26.833265)" />
    <linearGradient
       id="linearGradient4222-0">
      <stop
         id="stop4224-8"
         style="stop-color:#ffffff;stop-opacity:1"
         offset="0" />
      <stop
         id="stop4226-8"
         style="stop-color:#ffffff;stop-opacity:0"
         offset="1" />
    </linearGradient>
    <linearGradient
       x1="28.442495"
       y1="12.162322"
       x2="47.224953"
       y2="12.162322"
       id="linearGradient2924"
       xlink:href="#linearGradient2442"
       gradientUnits="userSpaceOnUse"
       gradientTransform="matrix(-0.31945023,0,0,-0.31335187,24.086019,24.811232)" />
    <linearGradient
       x1="15"
       y1="19"
       x2="9"
       y2="19"
       id="linearGradient2926"
       xlink:href="#linearGradient3712"
       gradientUnits="userSpaceOnUse"
       gradientTransform="matrix(1.0000101,0,0,0.99999959,-9.4e-5,1.5407882e-4)" />
  </defs>
  <path
     d="M 21.845,8 16.49986,2.8749983 C 14.990484,1.7406084 15.086727,1.4512891 13.999883,1.499998 l -3.9999634,0 C 8.8309162,1.4929557 8.7557995,1.8251154 7.4999426,2.8749983 L 2.155,8 C 1.861278,8.2500001 1.5,8.856061 1.5,9.298 l 0,10.404278 c 0,0.441939 0.206455,0.797724 0.655,0.797724 l 19.69,0 c 0.448545,0 0.655,-0.355785 0.655,-0.797724 L 22.5,9.298 C 22.5,8.856061 22.209039,8.2535212 21.845,8 z"
     id="path2847"
     style="opacity:0.4;fill:url(#linearGradient3629);fill-opacity:1;stroke:#3c3d3b;stroke-width:0.99999553px;stroke-linecap:butt;stroke-linejoin:miter;stroke-opacity:1" />
  <g
     transform="matrix(0.99999081,0,0,1.0000002,1.1549304e-5,1.9999981)"
     id="layer1">
    <g
       transform="matrix(0.01083522,0,0,0.00543807,21.637333,18.747158)"
       id="g11038"
       style="opacity:0.3;display:inline">
      <rect
         width="1339.6335"
         height="478.35718"
         x="-1559.2523"
         y="-150.69685"
         id="rect11040"
         style="opacity:0.39195981;fill:url(#linearGradient10235);fill-opacity:1;fill-rule:nonzero;stroke:none;stroke-width:1;marker:none;visibility:visible;display:inline;overflow:visible" />
      <path
         d="m -219.61876,-150.68038 c 0,0 0,478.33079 0,478.33079 142.874166,0.90045 345.40022,-107.16966 345.40014,-239.196175 0,-132.026537 -159.436816,-239.134595 -345.40014,-239.134615 z"
         id="path11042"
         style="opacity:0.40206185;fill:url(#radialGradient10237);fill-opacity:1;fill-rule:nonzero;stroke:none;stroke-width:1;marker:none;visibility:visible;display:inline;overflow:visible" />
      <path
         d="m -1559.2523,-150.68038 c 0,0 0,478.33079 0,478.33079 -142.8742,0.90045 -345.4002,-107.16966 -345.4002,-239.196175 0,-132.026537 159.4368,-239.134595 345.4002,-239.134615 z"
         id="path11044"
         style="opacity:0.40206185;fill:url(#radialGradient10239);fill-opacity:1;fill-rule:nonzero;stroke:none;stroke-width:1;marker:none;visibility:visible;display:inline;overflow:visible" />
    </g>
    <path
       d="m 3.4988055,1.4964336 17.0025355,3e-6 0.0024,10.9477254 -17.0072855,0.0594 0.00235,-11.0071284 z"
       id="rect2594"
       style="opacity:0.7;fill:url(#linearGradient3743);fill-opacity:1;stroke:url(#linearGradient3745);stroke-width:0.99287415;stroke-linecap:butt;stroke-linejoin:round;stroke-miterlimit:4;stroke-opacity:1;stroke-dasharray:none;stroke-dashoffset:0;display:inline" />
    <path
       d="m 5.5738317,7.4963368 10.9264003,0 M 5.5738317,5.5062707 12.499829,5.5064192 m -6.9259973,3.9799834 9.9262083,0 m -9.9262083,-5.9701978 12.9264183,5e-7"
       id="path2853"
       style="opacity:0.2;fill:none;stroke:#000000;stroke-width:0.99262124;stroke-linecap:square;stroke-linejoin:round;stroke-miterlimit:4;stroke-opacity:1;stroke-dasharray:none;stroke-dashoffset:0;display:inline" />
    <path
       d="M 2,9 2,20 22,20 22,9 16,14 7.9999999,14 2,9 z"
       transform="matrix(1.0000092,0,0,0.9999998,-1.154941e-5,-1.9999977)"
       id="path2894"
       style="opacity:0.8;fill:url(#linearGradient3674);fill-opacity:1;stroke:none" />
    <path
       d="m 14.296813,0.5000021 -4.5936397,0 m -7.2031619,6.1939985 0,10.6117074 c 0,0.122689 0.074735,0.194289 0.2030019,0.19429 l 18.5941707,4e-6 c 0.128266,0 0.203002,-0.0716 0.203002,-0.194294 l 0,-10.6117074"
       id="path11060"
       style="opacity:0.4;fill:none;stroke:#ffffff;stroke-width:0.99999982;stroke-linecap:butt;stroke-linejoin:round;stroke-miterlimit:4;stroke-opacity:0.99236642;stroke-dasharray:none;stroke-dashoffset:0.69999992" />
  </g>
  <path
     d="M 7.6619718,14.253521 2,20 M 16.169014,14.338028 22,20"
     id="path3341"
     style="opacity:0.5;fill:none;stroke:url(#linearGradient2916);stroke-width:1;stroke-linecap:butt;stroke-linejoin:miter;stroke-miterlimit:4;stroke-opacity:1;stroke-dasharray:none;stroke-dashoffset:0;marker:none;visibility:visible;display:inline;overflow:visible;enable-background:accumulate" />
  <path
     d="M 2,8.9999999 9,14.5 l 6,0 7,-5.5000001"
     id="path3493"
     style="opacity:0.5;fill:none;stroke:url(#linearGradient2466);stroke-width:1.00000012;stroke-linecap:butt;stroke-linejoin:miter;stroke-miterlimit:4;stroke-opacity:1;stroke-dasharray:none" />
  <path
     d="m 9.4990024,20.500146 7.0010716,0 0,3.000852 7.000924,-6.000998 -7.000924,-5.999998 0,3.000146 -7.0010716,0"
     id="path2911"
     style="fill:url(#linearGradient2924);fill-opacity:1;fill-rule:nonzero;stroke:url(#linearGradient2926);stroke-width:0.99800491;stroke-linecap:butt;stroke-linejoin:round;stroke-miterlimit:4;stroke-opacity:1;stroke-dasharray:none;stroke-dashoffset:0;marker:none;visibility:visible;display:inline;overflow:visible" />
  <path
     d="m 9.5000025,19.500146 8.0000815,0 0,1.751209 4.545161,-3.751355 -4.545161,-3.799998 0,1.800146 -8.0000815,0"
     id="path2913"
     style="opacity:0.3;fill:none;stroke:url(#linearGradient2919);stroke-width:0.99829936;stroke-linecap:butt;stroke-linejoin:miter;stroke-miterlimit:4;stroke-opacity:1;stroke-dasharray:none;stroke-dashoffset:0;marker:none;visibility:visible;display:inline;overflow:visible" />
</svg>

<?xml version="1.0" encoding="UTF-8" standalone="no"?>
<!-- Created with Inkscape (http://www.inkscape.org/) -->
<svg
   xmlns:svg="http://www.w3.org/2000/svg"
   xmlns="http://www.w3.org/2000/svg"
   xmlns:xlink="http://www.w3.org/1999/xlink"
   version="1.0"
   width="24"
   height="24"
   id="svg2">
  <defs
     id="defs4">
    <linearGradient
       x1="32.23851"
       y1="37.684677"
       x2="21.87499"
       y2="18.892372"
       id="linearGradient2570"
       xlink:href="#linearGradient4222-0"
       gradientUnits="userSpaceOnUse"
       gradientTransform="matrix(0.3704967,0,0,-0.3617496,7.667946,25.833269)" />
    <linearGradient
       id="linearGradient3303">
      <stop
         id="stop3305"
         style="stop-color:#cc7032;stop-opacity:1"
         offset="0" />
      <stop
         id="stop3307"
         style="stop-color:#bb2d13;stop-opacity:1"
         offset="0.8271265" />
      <stop
         id="stop3309"
         style="stop-color:#a87300;stop-opacity:0"
         offset="1" />
    </linearGradient>
    <linearGradient
       x1="24.003723"
       y1="19"
       x2="9"
       y2="19"
       id="linearGradient2575"
       xlink:href="#linearGradient3303"
       gradientUnits="userSpaceOnUse"
       gradientTransform="translate(0,-0.999853)" />
    <linearGradient
       id="linearGradient3311">
      <stop
         id="stop3313"
         style="stop-color:#ecb56c;stop-opacity:1"
         offset="0" />
      <stop
         id="stop3315"
         style="stop-color:#e86225;stop-opacity:1"
         offset="0.82442904" />
      <stop
         id="stop3317"
         style="stop-color:#b07c0b;stop-opacity:0"
         offset="1" />
    </linearGradient>
    <linearGradient
       x1="0.26926842"
       y1="12.162322"
       x2="47.224953"
       y2="12.162322"
       id="linearGradient2573"
       xlink:href="#linearGradient3311"
       gradientUnits="userSpaceOnUse"
       gradientTransform="matrix(-0.319447,0,0,-0.313352,24.08587,23.811235)" />
    <radialGradient
       cx="605.71429"
       cy="486.64789"
       r="117.14286"
       fx="605.71429"
       fy="486.64789"
       id="radialGradient10239"
       xlink:href="#linearGradient5060"
       gradientUnits="userSpaceOnUse"
       gradientTransform="matrix(-2.774389,0,0,1.969706,112.7623,-872.8854)" />
    <linearGradient
       id="linearGradient5060">
      <stop
         id="stop5062"
         style="stop-color:#000000;stop-opacity:1"
         offset="0" />
      <stop
         id="stop5064"
         style="stop-color:#000000;stop-opacity:0"
         offset="1" />
    </linearGradient>
    <radialGradient
       cx="605.71429"
       cy="486.64789"
       r="117.14286"
       fx="605.71429"
       fy="486.64789"
       id="radialGradient10237"
       xlink:href="#linearGradient5060"
       gradientUnits="userSpaceOnUse"
       gradientTransform="matrix(3.773088,0,0,1.969706,-2496.5592,-872.8854)" />
    <linearGradient
       id="linearGradient5048">
      <stop
         id="stop5050"
         style="stop-color:#000000;stop-opacity:0"
         offset="0" />
      <stop
         id="stop5056"
         style="stop-color:#000000;stop-opacity:1"
         offset="0.5" />
      <stop
         id="stop5052"
         style="stop-color:#000000;stop-opacity:0"
         offset="1" />
    </linearGradient>
    <linearGradient
       x1="302.85715"
       y1="366.64789"
       x2="302.85715"
       y2="609.50507"
       id="linearGradient10235"
       xlink:href="#linearGradient5048"
       gradientUnits="userSpaceOnUse"
       gradientTransform="matrix(2.774389,0,0,1.969706,-1892.179,-872.8854)" />
    <linearGradient
       id="linearGradient6945">
      <stop
         id="stop6947"
         style="stop-color:#ffffff;stop-opacity:1"
         offset="0" />
      <stop
         id="stop6949"
         style="stop-color:#d3d7cf;stop-opacity:1"
         offset="1" />
    </linearGradient>
    <linearGradient
       x1="11.887408"
       y1="-0.38282421"
       x2="11.436515"
       y2="18.462242"
       id="linearGradient3629"
       xlink:href="#linearGradient6945"
       gradientUnits="userSpaceOnUse"
       gradientTransform="matrix(0.9999908,0,0,1.0000002,1.1549304e-5,1.9999981)" />
    <linearGradient
       id="linearGradient3600-9">
      <stop
         id="stop3602-7"
         style="stop-color:#f4f4f4;stop-opacity:1"
         offset="0" />
      <stop
         id="stop3604-8"
         style="stop-color:#dbdbdb;stop-opacity:1"
         offset="1" />
    </linearGradient>
    <linearGradient
       id="linearGradient3931-1">
      <stop
         id="stop3933-4"
         style="stop-color:#8d8f8a;stop-opacity:1"
         offset="0" />
      <stop
         id="stop3935-3"
         style="stop-color:#c1c1c1;stop-opacity:1"
         offset="1" />
    </linearGradient>
    <linearGradient
       x1="25.132275"
       y1="6.7287393"
       x2="25.132275"
       y2="47.013336"
       id="linearGradient3743"
       xlink:href="#linearGradient3600-9"
       gradientUnits="userSpaceOnUse"
       gradientTransform="matrix(0.3716348,0,0,0.3317821,-0.9199337,-2.983716)" />
    <linearGradient
       x1="-53.179272"
       y1="16.539951"
       x2="-52.184364"
       y2="5.3934226"
       id="linearGradient3745"
       xlink:href="#linearGradient3931-1"
       gradientUnits="userSpaceOnUse"
       gradientTransform="matrix(0.3000939,0,0,0.3104985,21.158976,-3.3534808)" />
    <linearGradient
       id="linearGradient3242-967-12-570-862-307">
      <stop
         id="stop4498"
         style="stop-color:#ffffff;stop-opacity:1"
         offset="0" />
      <stop
         id="stop4502"
         style="stop-color:#cfcfcf;stop-opacity:1"
         offset="0.87426931" />
      <stop
         id="stop4504"
         style="stop-color:#999999;stop-opacity:1"
         offset="1" />
    </linearGradient>
    <linearGradient
       x1="12"
       y1="4"
       x2="12"
       y2="21"
       id="linearGradient3674"
       xlink:href="#linearGradient3242-967-12-570-862-307"
       gradientUnits="userSpaceOnUse" />
    <linearGradient
       id="linearGradient3495-841-851-719">
      <stop
         id="stop4120"
         style="stop-color:#1e1e1e;stop-opacity:1"
         offset="0" />
      <stop
         id="stop4122"
         style="stop-color:#1e1e1e;stop-opacity:0"
         offset="1" />
    </linearGradient>
    <linearGradient
       x1="23.999866"
       y1="29.826038"
       x2="23.903786"
       y2="16.00676"
       id="linearGradient2466"
       xlink:href="#linearGradient3495-841-851-719"
       gradientUnits="userSpaceOnUse"
       gradientTransform="matrix(0.4657385,0,0,0.4850945,0.8223379,0.5315523)" />
    <linearGradient
       x1="23.928667"
       y1="30.773148"
       x2="23.928667"
       y2="45.530704"
       id="linearGradient2916"
       xlink:href="#linearGradient3495-841-851-719"
       gradientUnits="userSpaceOnUse"
       gradientTransform="matrix(0.4657385,0,0,0.4850945,0.8223378,-2.1022336)" />
    <linearGradient
       id="linearGradient4222-0">
      <stop
         id="stop4224-8"
         style="stop-color:#ffffff;stop-opacity:1"
         offset="0" />
      <stop
         id="stop4226-8"
         style="stop-color:#ffffff;stop-opacity:0"
         offset="1" />
    </linearGradient>
  </defs>
  <path
     d="M 21.845,8 L 16.49986,2.8749983 C 14.990484,1.7406084 15.086727,1.4512891 13.999883,1.499998 L 9.9999196,1.499998 C 8.8309162,1.4929557 8.7557995,1.8251154 7.4999426,2.8749983 L 2.155,8 C 1.861278,8.2500001 1.5,8.856061 1.5,9.298 L 1.5,19.702278 C 1.5,20.144217 1.706455,20.500002 2.155,20.500002 L 21.845,20.500002 C 22.293545,20.500002 22.5,20.144217 22.5,19.702278 L 22.5,9.298 C 22.5,8.856061 22.209039,8.2535212 21.845,8 z"
     id="path2847"
     style="opacity:0.4;fill:url(#linearGradient3629);fill-opacity:1;stroke:#3c3d3b;stroke-width:0.99999553px;stroke-linecap:butt;stroke-linejoin:miter;stroke-opacity:1" />
  <g
     transform="matrix(0.9999908,0,0,1.0000002,1.1549304e-5,1.9999981)"
     id="layer1">
    <g
       transform="matrix(1.083522e-2,0,0,5.43807e-3,21.637333,18.747158)"
       id="g11038"
       style="opacity:0.3;display:inline">
      <rect
         width="1339.6335"
         height="478.35718"
         x="-1559.2523"
         y="-150.69685"
         id="rect11040"
         style="opacity:0.39195981;fill:url(#linearGradient10235);fill-opacity:1;fill-rule:nonzero;stroke:none;stroke-width:1;marker:none;visibility:visible;display:inline;overflow:visible" />
      <path
         d="M -219.61876,-150.68038 C -219.61876,-150.68038 -219.61876,327.65041 -219.61876,327.65041 C -76.744594,328.55086 125.78146,220.48075 125.78138,88.454235 C 125.78138,-43.572302 -33.655436,-150.68036 -219.61876,-150.68038 L -219.61876,-150.68038 z"
         id="path11042"
         style="opacity:0.40206185;fill:url(#radialGradient10237);fill-opacity:1;fill-rule:nonzero;stroke:none;stroke-width:1;marker:none;visibility:visible;display:inline;overflow:visible" />
      <path
         d="M -1559.2523,-150.68038 C -1559.2523,-150.68038 -1559.2523,327.65041 -1559.2523,327.65041 C -1702.1265,328.55086 -1904.6525,220.48075 -1904.6525,88.454235 C -1904.6525,-43.572302 -1745.2157,-150.68036 -1559.2523,-150.68038 L -1559.2523,-150.68038 z"
         id="path11044"
         style="opacity:0.40206185;fill:url(#radialGradient10239);fill-opacity:1;fill-rule:nonzero;stroke:none;stroke-width:1;marker:none;visibility:visible;display:inline;overflow:visible" />
    </g>
    <path
       d="M 3.4988055,1.4964336 L 20.501341,1.4964366 L 20.503741,12.444162 L 3.4964555,12.503562 L 3.4988055,1.4964336 L 3.4988055,1.4964336 z"
       id="rect2594"
       style="opacity:0.7;fill:url(#linearGradient3743);fill-opacity:1;stroke:url(#linearGradient3745);stroke-width:0.99287415;stroke-linecap:butt;stroke-linejoin:round;stroke-miterlimit:4;stroke-dasharray:none;stroke-dashoffset:0;stroke-opacity:1;display:inline" />
    <path
       d="M 5.5738317,7.4963368 L 16.500232,7.4963368 M 5.5738317,5.5062707 L 12.499829,5.5064192 M 5.5738317,9.4864026 L 15.50004,9.4864026 M 5.5738317,3.5162048 L 18.50025,3.5162053"
       id="path2853"
       style="opacity:0.2;fill:none;stroke:#000000;stroke-width:0.99262124;stroke-linecap:square;stroke-linejoin:round;stroke-miterlimit:4;stroke-dasharray:none;stroke-dashoffset:0;stroke-opacity:1;display:inline" />
    <path
       d="M 2,9 L 2,20 L 22,20 L 22,9 L 16,14 L 7.9999999,14 L 2,9 z"
       transform="matrix(1.0000092,0,0,0.9999998,-1.154941e-5,-1.9999977)"
       id="path2894"
       style="opacity:0.8;fill:url(#linearGradient3674);fill-opacity:1;stroke:none" />
    <path
       d="M 14.296813,0.5000021 L 9.7031733,0.5000021 M 2.5000114,6.6940006 L 2.5000114,17.305708 C 2.5000114,17.428397 2.5747464,17.499997 2.7030133,17.499998 L 21.297184,17.500002 C 21.42545,17.500002 21.500186,17.428402 21.500186,17.305708 L 21.500186,6.6940006"
       id="path11060"
       style="opacity:0.4;fill:none;stroke:#ffffff;stroke-width:0.99999982;stroke-linecap:butt;stroke-linejoin:round;stroke-miterlimit:4;stroke-dasharray:none;stroke-dashoffset:0.69999992;stroke-opacity:0.99236642" />
  </g>
  <path
     d="M 7.6619718,14.253521 L 2,20 M 16.169014,14.338028 L 22,20"
     id="path3341"
     style="opacity:0.5;fill:none;stroke:url(#linearGradient2916);stroke-width:1;stroke-linecap:butt;stroke-linejoin:miter;marker:none;stroke-miterlimit:4;stroke-dasharray:none;stroke-dashoffset:0;stroke-opacity:1;visibility:visible;display:inline;overflow:visible;enable-background:accumulate" />
  <path
     d="M 2,8.9999999 L 9,14.5 L 15,14.5 L 22,8.9999999"
     id="path3493"
     style="opacity:0.5;fill:none;stroke:url(#linearGradient2466);stroke-width:1.00000012;stroke-linecap:butt;stroke-linejoin:miter;stroke-miterlimit:4;stroke-dasharray:none;stroke-opacity:1" />
  <path
     d="M 9.499,19.500147 L 16.5,19.500147 L 16.5,22.501 L 23.500853,16.5 L 16.5,10.5 L 16.5,13.500147 L 9.499,13.500147"
     id="path2911"
     style="fill:url(#linearGradient2573);fill-opacity:1;fill-rule:nonzero;stroke:url(#linearGradient2575);stroke-width:0.99800003;stroke-linecap:butt;stroke-linejoin:round;marker:none;stroke-miterlimit:4;stroke-dasharray:none;stroke-dashoffset:0;stroke-opacity:1;visibility:visible;display:inline;overflow:visible" />
  <path
     d="M 9.5,18.500147 L 17.5,18.500147 L 17.5,20.251357 L 22.045115,16.5 L 17.5,12.7 L 17.5,14.500147 L 9.5,14.500147"
     id="path2913"
     style="opacity:0.3;fill:none;stroke:url(#linearGradient2570);stroke-width:0.99829447;stroke-linecap:butt;stroke-linejoin:miter;marker:none;stroke-miterlimit:4;stroke-dasharray:none;stroke-dashoffset:0;stroke-opacity:1;visibility:visible;display:inline;overflow:visible" />
</svg>
